X: 4931
T: Breakfast Club
R: reel
M: 4/4
K: Gmajor
|:DG G2 AGGd|d2 cd BGEd|d2 cd BGDG|dGgd e3g|
d2 dc BG G2|DG G2 AGGd|d2 cd BGEG|DcBG cBGE:|
|:DG G2 cG G2|BGAB AGEG|DG G2 cG G2|BGAB A2GE|
[1 DG G2 EG G2|BGAB degd|e3d B2 AG|A3G ABGE:|
[2 DG G2 EG G2|BGAB degd|e3d e2ge|dcBG cBGE||

